X:392
T:Kit O'Mahony
R:jig
D:Tim Collins
Z:id:hn-jig-392
M:6/8
L:1/8
K:G
BdB A2B | GB/A/G FGA | BAB cAF | DGF Gdc | 
BcG AGF | D2G FGA | fed cAF |1 DGF G2A :|2 DGF G2D ||
|: GBd gag | fed cAF | GBd def | gbg def | 
g2e fed | edB cde | fed cAF | DGF G2D :| 
|: GBd cA/B/c | BGF GBd | gdB cAG | FGA cAF | 
GBd cA/B/c | BGF GBd | fed cAF |1 DGF G2D :|2 DGF GBd || 
|: gag dBG | fed cAF | GBd def | gag def | 
ge/f/g afd | bag afd | fed cAF |1 DGF GBd :|2 DGF G2A || 
P:variations
|: B2d ABA | GAG FGA | B/c/dB cAF | DGF G2A | 
B2G AGF | DGE FGA | fed cAF |1 DGF G2A :|2 DGF G2D ||
|: GBd deg | fed cAF | GBd def | gag def | 
g2e fed | edB c2g | fed cAF | DGF G2D :| 
|: GB/c/d cAc | BGF GBd | gdB cAG | FGA cAF | 
GB/c/d cAc | BGF G2g | fed cAF |1 DGF G2D :|2 DGF GBd || 
|: ~g3 dBG | fed cAF | ~G3 def | gag def | 
gfg abc' | bag afd | fed cAF |1 DGF GBd :|2 DGF G2A || 

